icon-themes/sifr_svg/cmd/lc_inserttimefieldvar.svg

<svg viewBox="0 0 24 24" xmlns="http://www.w3.org/2000/svg"><path d="m12 2c-5.5228475 0-10 4.4771525-10 10 0 5.522847 4.4771525 10 10 10 5.522847 0 10-4.477153 10-10 0-5.5228475-4.477153-10-10-10zm-2 4h2v6h4v2h-4-2z" fill="#555753"/></svg>

<svg xmlns="http://www.w3.org/2000/svg" viewBox="0 0 24 24">
  <path
     style="fill:#555753"
     d="M 12 2 C 6.4771525 2 2 6.4771525 2 12 C 2 17.522847 6.4771525 22 12 22 C 17.522847 22 22 17.522847 22 12 C 22 6.4771525 17.522847 2 12 2 z M 10 6 L 12 6 L 12 12 L 16 12 L 16 14 L 12 14 L 10 14 L 10 6 z "
     />
</svg>
